X:1
T:Our Better Home Beyond
T:Our Better Home Beyond
T:William Howard Doane
T:Frances Jane (Fanny) Crosby, 1875
T:Public Domain Courtesy of the Cyber Hymnal™
C:William Howard Doane
Z:Public Domain
Z:Courtesy of the Cyber Hymnal™
%%score ( 1 2 ) ( 3 4 )
L:1/8
Q:1/4=95
M:6/8
K:E
V:1 treble 
V:2 treble 
V:3 bass 
V:4 bass 
V:1
 E | [EG]2 [EG] ([FA][EG])[FA] | [GB]2 [FA] [EG]2 E | [DF]2 [DF] ([DF][CE])[DF] | ([EG]3 [GB]2) E | %5
w: 1.~Had|earth no thorns * a-|mong its flowers, And|life no fount * of|tears, * We|
w: 2.~How|wise- ly God * our|cup has filled, With|min- gled joy * and|grief, * To|
w: 3.~Our|bet- ter home! * how|sweet to think, When|torn from those * we|love, * No|
w: 4.~O|bliss- ful mo- * ment|when a- side These|earth- ly robes * we’ll|cast, * Then|
 [EG]2 [EG] ([FA][EG])[FA] | [Ac]2 [GB] [EG]2 E | [DF]2 [DF] ([FA][EG])[DF] | E3- E2 || %9
w: might for- get * our|bet- ter home, Be-|yond this vale * of|tears. *|
w: teach our hearts * that|mor- tal things, Tho’|bright, are on- * ly|brief. *|
w: sad fare- well * can|ev- er reach Our|bet- ter home * a-|bove. *|
w: wake to know * our|souls have found The|bet- ter home * at|last. *|
"^Refrain" [GB]3 (GEG) | [FA]3- [FA]2 [FA] | [FA][EG][DF] [GB]2 [FA] | [EG]3- [EG]2 [EB] | %13
w: ||||
w: Home, sweet * *|home; * Our|beau- ti- ful home be-|yond. * Our|
w: ||||
w: ||||
 [Ec]2 [Ec] [Ee][Ed][Ec] | [Ec][EB][EB] [EB]2 [EG] | [DF][DF][DF] ([FA][EG])[DF] | E3- E2 |] %17
w: ||||
w: home that Je- sus has|gone to pre- pare, Our|beau- ti- ful home * be-|yond. *|
w: ||||
w: ||||
V:2
 E | x6 | x5 E | x6 | x5 E | x6 | x5 E | x6 | E3- E2 || x3 E3 | x6 | x6 | x6 | x6 | x6 | x6 | %16
 E3- E2 |] %17
V:3
 [E,G,] | [E,B,]2 [E,B,] [E,B,]2 [E,B,] | [E,B,]2 [E,B,] [E,B,]2 [E,G,] | %3
w: ~|~ ~ ~ ~|~ ~ ~ ~|
 [B,,B,]2 [B,,B,] [B,,B,]2 [B,,B,] | [E,B,]3- [E,B,]2 [E,G,] | [E,B,]2 [E,B,] [E,B,]2 [E,B,] | %6
w: ~ ~ ~ ~|~ * ~|~ ~ ~ ~|
 [E,E]2 [E,E] [E,B,]2 [E,G,] | [B,,B,]2 [B,,B,] [B,,B,]2 [B,,A,] | [E,G,]3- [E,G,]2 || %9
w: ~ ~ ~ ~|~ ~ ~ ~|~ *|
 [E,B,]3 (B,G,B,) | [B,,B,][B,,B,][B,,B,] [B,,B,]2 [B,,B,] | %11
w: ~ ~ * *|~ Beau- ti- ful home,|
 [B,,B,][B,,B,][B,,B,] [B,,B,]2 [B,,B,] | [E,B,]3- [E,B,]2 [E,G,] | %13
w: ||
 [A,,A,]2 [A,,A,] [A,,C][A,,B,][C,A,] | [E,A,][E,G,][E,G,] [E,G,]2 [E,B,] | %15
w: ||
 [B,,B,][B,,B,][B,,B,] [B,,B,]2 [B,,A,] | [E,G,]3- [E,G,]2 |] %17
w: ||
V:4
 x | x6 | x6 | x6 | x6 | x6 | x6 | x6 | x5 || x3 E,3 | x6 | x6 | x6 | x6 | x6 | x6 | x5 |] %17

